images/advantages-icon-7.svg

<svg width="19" height="19" viewBox="0 0 19 19" fill="none" xmlns="http://www.w3.org/2000/svg">
<path d="M18.667 6.97989C18.667 7.52648 18.2137 7.97989 17.667 7.97989C17.1203 7.97989 16.667 7.52648 16.667 6.97989V4.05989L11.0803 9.64648L16.667 15.2332V12.3132C16.667 11.7665 17.1203 11.3132 17.667 11.3132C18.2137 11.3132 18.667 11.7665 18.667 12.3132V17.6465C18.667 17.7799 18.6403 17.8999 18.587 18.0332C18.4803 18.2732 18.2937 18.4732 18.0403 18.5799C17.9203 18.6332 17.787 18.6599 17.6537 18.6599H12.3203C11.7737 18.6599 11.3203 18.2065 11.3203 17.6599C11.3203 17.1132 11.7737 16.6599 12.3203 16.6599H15.2403L9.66699 11.0599L4.08029 16.6465H7.00029C7.54699 16.6465 8.00029 17.0999 8.00029 17.6465C8.00029 18.1932 7.54699 18.6465 7.00029 18.6465H1.66699C1.53369 18.6465 1.40029 18.6199 1.28029 18.5665C1.04029 18.4599 0.840292 18.2732 0.733692 18.0199C0.693692 17.8999 0.666992 17.7799 0.666992 17.6465V12.3132C0.666992 11.7665 1.12029 11.3132 1.66699 11.3132C2.21369 11.3132 2.66699 11.7665 2.66699 12.3132V15.2332L8.25369 9.64648L2.66699 4.05989V6.97989C2.66699 7.52648 2.21369 7.97989 1.66699 7.97989C1.12029 7.97989 0.666992 7.52648 0.666992 6.97989V1.64648C0.666992 1.51318 0.693692 1.39319 0.746992 1.25989C0.853692 1.01989 1.04029 0.819884 1.29369 0.713184C1.41369 0.673184 1.53369 0.646484 1.66699 0.646484H7.00029C7.54699 0.646484 8.00029 1.09988 8.00029 1.64648C8.00029 2.19318 7.54699 2.64648 7.00029 2.64648H4.08029L9.66699 8.23318L15.2537 2.64648H12.3337C11.787 2.64648 11.3337 2.19318 11.3337 1.64648C11.3337 1.09988 11.787 0.646484 12.3337 0.646484H17.667C17.8003 0.646484 17.9203 0.673184 18.0537 0.726484C18.2937 0.833184 18.4937 1.01989 18.6003 1.27319C18.6403 1.39319 18.667 1.51318 18.667 1.64648V6.97989Z" fill="white"/>
</svg>

<svg width="19" height="19" fill="none" xmlns="http://www.w3.org/2000/svg"><path d="M18.667 6.98c0 .546-.453 1-1 1-.547 0-1-.454-1-1V4.06L11.08 9.646l5.587 5.587v-2.92c0-.546.453-1 1-1 .547 0 1 .454 1 1v5.333c0 .134-.027.254-.08.387-.107.24-.293.44-.547.547a.957.957 0 01-.386.08H12.32c-.546 0-1-.454-1-1 0-.547.454-1 1-1h2.92l-5.573-5.6-5.587 5.586H7c.547 0 1 .454 1 1 0 .547-.453 1-1 1H1.667a.956.956 0 01-.387-.08 1.043 1.043 0 01-.546-.546c-.04-.12-.067-.24-.067-.373v-5.334c0-.546.453-1 1-1 .547 0 1 .454 1 1v2.92l5.587-5.587L2.667 4.06v2.92c0 .546-.453 1-1 1-.547 0-1-.454-1-1V1.646c0-.133.027-.253.08-.386.107-.24.293-.44.547-.547.12-.04.24-.067.373-.067H7c.547 0 1 .454 1 1 0 .547-.453 1-1 1H4.08l5.587 5.587 5.587-5.587h-2.92c-.547 0-1-.453-1-1 0-.546.453-1 1-1h5.333a1.016 1.016 0 01.933.627c.04.12.067.24.067.373V6.98z" fill="#fff"/></svg>
